X: 166
T: Sporting Paddy
R: reel
M: 4/4
L: 1/8
K:Gmaj
"Am"EAAE "G"GABG |"Am" EAAB "G"G2ED |"Am" EAAE "G"GABd |"Am7(C)" edge "G"dBAG |
"Am"EAAE "G"GABG |"Am" EAAB "G"G2ED |"Am" EAAE "G"GABd |"Am7(C)" edge "G"d2||
ef |"Em(C)" g~e3 "(G)"gede |"Em(C)" g~e3 "D"a2ba |"Em(C)" gee2 "(G)"ged2 |"C(Em)" efge "D"d2ef |
"Em(C)"geee "(G)"gede |"Em(C)" geee "D"a2ga |"G(Em)" bgaf gfed |"C(Em)" efge "G"dBAG |]


